X: 1
T:Dalarna song tune (my father to the wars has gone)
O:Sweden
M:3/4
A:Dalarna
K:D
F2|\
F4 EC|D4 G2 |A4 G2|E4  GF|\
D4 FE|C3D EC|(D6  |D4) G2||\
A4 G2|F4 ED |E4 DC|A,4 B,C|
D4 E2|F4 AG |(E6  |E4) G2||\
A4 G2|F4 ED |E4 DC|A,4 B,C|
D4 E2|F4 AG |(E6  |E4) F2||\
F4 EC|D4 G2 |A4 G2|E4 GF |\
D4 FE|C3D EC|(D6  |D4)|]
